X:1
T:Leaving All to Follow Jesus
T:Leaving All to Follow Jesus
T:Charles Hutchinson Gabriel
T:Ida M. Budd, 1898
T:Public Domain Courtesy of the Cyber Hymnal™
T:Public Domain Courtesy of the Cyber Hymnal™
C:Charles Hutchinson Gabriel
Z:Public Domain
Z:Courtesy of the Cyber Hymnal™
%%score ( 1 2 ) ( 3 4 )
L:1/8
Q:1/4=115
M:9/8
K:Eb
V:1 treble 
V:2 treble 
V:3 bass 
V:4 bass 
V:1
 (G^F)[EG] | [EB]3 [EG]3 (AB)[Ec] | [EB]3 [Ge]3 ([EG][GB])[Ge] | [Bd]2 [Ac] [GB]3 [FA]3 | %4
w: 1.~Leav- * ing|all to fol- * low|Je- sus, Turn- * ing|from the world a-|
w: 2.~Naught * re-|serv- ing, on * the|al- tar All * I|lay, and wait the|
w: 3.~Tak- * ing|up the cross * of|Je- sus, Glad * for|Him to suf- fer|
w: 4.~Praise * His|pre- cious name * for-|ev- er That * His|blood hath made me|
 [EG]6 (G^F)[EG] | [EB]3 [EG]3 (AB)[Ec] | [EB]3 [Ge]3 ([EG][GB])[Ge] | [Fd]2 [Fc] [FB]3 [E=A]3 | %8
w: way, Step- * ping|out up- on * the|prom- ise, All * I|have is His to-|
w: hour When * the|fire from Heaven * de-|scend- ing Shall * at-|test His glor- ious|
w: shame, All * my|gain I count * but|loss- es For * the|glor- y of His|
w: free! Now * my|soul shall joy * to|tell it, Thro’ * the|long e- ter- ni-|
 [DB]6 ||"^Refrain" (cd)e | d3 A3 (Bc)[Ad] | c3 G3 B x2 | [GB]2 [DF] B3 A3 | G3- [EG]3 e x2 | %14
w: day.||||||
w: pow’r.||||||
w: name.|Leav- * ing|all to fol- * low|Je- sus, Turn-|ing from the world|a- way, Step-|
w: ty.||||||
 d3 A3 (Bc)[Ad] | c3 G3 (Bc)[EB] | (BA)E [EG]3 [DF]3 | E6 |] %18
w: ||||
w: ||||
w: ping out up- * on|His prom- ise, * All|I * have is His|to-|
w: ||||
V:2
 E2 x | x6 E2 x | x9 | x9 | x6 E2 x | x6 E2 x | x9 | x9 | x6 || x3 | (A2 A F2) F A2 x | %11
 (G2 G) (E2 E) (Bc) x | x3 (G2 G) (F2 F) | (E2 E cd) x4 | (A2 A F2) F A2 x | (G2 G E2) E E2 x | %16
 E2 E x6 | E6 |] %18
V:3
 (B,=A,)[E,B,] | [E,G,]3 [E,B,]3 (CG,)[E,A,] | [E,G,]3 [E,B,]3 [E,B,]2 [E,B,] | %3
 [B,,B,]2 [B,,B,] [B,,B,]3 [B,,B,]3 | [E,B,]6 (B,=A,)[E,B,] | [E,G,]3 [E,B,]3 (CG,)[E,A,] | %6
 [E,G,]3 [E,B,]3 [E,B,]2 [E,B,] | [F,B,]2 [F,E] [F,D]3 [F,C]3 | [B,,B,]6 || z3 | %10
 ([B,,F]2 [B,,F] [B,,D]2) [B,,D] [B,,D]2 [B,,F] | ([E,E]2 [E,E]) ([E,B,]2 [E,B,]) z3 | %12
 [B,,B,]2 [B,,B,] ([B,,B,]2 [B,,B,]) ([B,,B,]2 [B,,B,]) | [E,B,]2 [E,B,] [E,B,]3 z3 | %14
 ([B,,F]2 [B,,F] [B,,D]2) [B,,D] [B,,D]2 [B,,F] | ([E,E]2 [E,E] [E,B,]2) [D,B,] [=D,_D]2 [E,D] | %16
 [A,,C]2 [A,,C] [B,,B,]3 [B,,A,]3 | [E,G,]6 |] %18
V:4
 E,2 x | x6 E,2 x | x9 | x9 | x6 E,2 x | x6 E,2 x | x9 | x9 | x6 || x3 | x9 | x9 | x9 | x9 | x9 | %15
 x9 | x9 | x6 |] %18

